X:99
T:Carle Cam' o'er the Craft, The
R:Reel
B:The Athole Collection
M:C|
L:1/8
K:A
A3e cAce|=g2d=c B/c/d B=G|A3e cAce|aefd cecA:|
|:AaaB =cdef|=g=GG=c B/c/d BG|1 Aagb a2 ef/g/|aefd cecA:|2
Aagb aefg|aefd cecA||

